X:1
T: Mrs. Stewart Nicholson
C:Nathaniel Gow
R:Strathspey
Q: 128
K:D
M:4/4
L:1/16
|:A2|F3E D2F2 B,B,3 E4|DCB,A, A,2B,C D3F Ad3|F3E D3F B,B,3 E4 DCB,A, B,2C2 D6 A2|
F3E D2F2 B,B,3 E4|DCB,A, A,2B,C D3F Ad3|F3E D3F B,B,3 E4|DCB,A, B,2C2 D6 B2|
Ad3 d2ef eB3 B3e|c3B A2Bc defg a3d|Ad3 d2ef g2B2 B3e|c3B ABcA d4 D3B|
Ad3 d2ef eB3 B3e|c3B A2Bc defg a3d|Ad3 B3d AB3 F3D|DCB,A, B,2C2 D6:|
